;Generated with Cura_SteamEngine 13.12
;FLAVOR:UltiGCode
;TIME:1904      
;MATERIAL:2412      
;MATERIAL2:0         

;Layer count: 38
;LAYER:0
M106 S255
G0 F9000 X96.60 Y87.57 Z0.10
;TYPE:SKIRT
G11
G1 F1500 X100.03 Y84.14 E0.14535
G1 X105.57 Y84.14 E0.31173
G1 X106.57 Y85.14 E0.35416
G1 X121.23 Y85.14 E0.79378
G1 X122.23 Y84.14 E0.83621
G1 X128.97 Y84.14 E1.03859
G1 X132.40 Y87.57 E1.18396
G1 X132.40 Y90.00 E1.25683
G1 X132.40 Y90.00 E1.25690
G1 X132.40 Y109.78 E1.85030
G1 X132.30 Y110.02 E1.85812
G1 X132.30 Y111.02 E1.88803
G1 X131.60 Y111.72 E1.91795
G1 X131.51 Y111.93 E1.92470
G1 X129.69 Y113.75 E2.00196
G1 X129.48 Y113.84 E2.00871
G1 X128.87 Y114.45 E2.03446
G1 X128.01 Y114.45 E2.06020
G1 X127.54 Y114.64 E2.07572
G1 X101.46 Y114.64 E2.85812
G1 X100.98 Y114.45 E2.87359
G1 X100.43 Y114.45 E2.89024
G1 X100.03 Y114.05 E2.90700
G1 X99.30 Y113.75 E2.93075
G1 X97.48 Y111.92 E3.00803
G1 X97.19 Y111.21 E3.03107
G1 X97.00 Y111.02 E3.03917
G1 X97.00 Y110.75 E3.04733
G1 X96.60 Y109.78 E3.07881
G1 X96.60 Y87.57 E3.74502
G0 F9000 X96.90 Y87.69
G1 F1500 X100.15 Y84.44 E3.88295
G1 X105.45 Y84.44 E4.04183
G1 X106.45 Y85.44 E4.08426
G1 X121.35 Y85.44 E4.53138
G1 X122.35 Y84.44 E4.57380
G1 X128.85 Y84.44 E4.76868
G1 X132.10 Y87.69 E4.90663
G1 X132.10 Y90.06 E4.97752
G1 X132.10 Y90.06 E4.97759
G1 X132.10 Y109.72 E5.56742
G1 X132.00 Y109.96 E5.57525
G1 X132.00 Y110.89 E5.60321
G1 X131.34 Y111.55 E5.63121
G1 X131.25 Y111.76 E5.63793
G1 X129.52 Y113.50 E5.71163
G1 X129.31 Y113.58 E5.71835
G1 X128.75 Y114.15 E5.74220
G1 X127.95 Y114.15 E5.76602
G1 X127.48 Y114.34 E5.78151
G1 X101.52 Y114.34 E6.56034
G1 X101.04 Y114.15 E6.57578
G1 X100.55 Y114.15 E6.59048
G1 X100.20 Y113.80 E6.60528
G1 X99.47 Y113.49 E6.62907
G1 X97.74 Y111.75 E6.70275
G1 X97.44 Y111.04 E6.72589
G1 X97.30 Y110.89 E6.73199
G1 X97.30 Y110.69 E6.73817
G1 X96.90 Y109.72 E6.76968
G1 X96.90 Y87.69 E7.43034
G0 F9000 X97.20 Y87.82
G1 F1500 X100.28 Y84.74 E7.56080
G1 X105.32 Y84.74 E7.71224
G1 X106.32 Y85.74 E7.75467
G1 X121.47 Y85.74 E8.20923
G1 X122.47 Y84.74 E8.25165
G1 X128.72 Y84.74 E8.43909
G1 X131.80 Y87.82 E8.56958
G1 X131.80 Y90.12 E8.63855
G1 X131.80 Y90.12 E8.63861
G1 X131.80 Y109.66 E9.22487
G1 X131.70 Y109.90 E9.23270
G1 X131.70 Y110.77 E9.25871
G1 X131.09 Y111.38 E9.28476
G1 X131.00 Y111.59 E9.29149
G1 X129.35 Y113.24 E9.36162
G1 X129.14 Y113.33 E9.36834
G1 X128.62 Y113.85 E9.39023
G1 X127.90 Y113.85 E9.41210
G1 X127.42 Y114.04 E9.42760
G1 X101.58 Y114.04 E10.20286
G1 X101.10 Y113.85 E10.21832
G1 X100.68 Y113.85 E10.23107
G1 X100.37 Y113.54 E10.24393
G1 X99.64 Y113.24 E10.26768
G1 X97.99 Y111.58 E10.33779
G1 X97.70 Y110.87 E10.36093
G1 X97.60 Y110.77 E10.36513
G1 X97.60 Y110.63 E10.36939
G1 X97.20 Y109.66 E10.40086
G1 X97.20 Y87.82 E11.05603
G0 F9000 X97.50 Y87.94
G1 F1500 X100.40 Y85.04 E11.17903
G1 X105.20 Y85.04 E11.32303
G1 X106.20 Y86.04 E11.36545
G1 X121.60 Y86.04 E11.82745
G1 X122.60 Y85.04 E11.86988
G1 X128.60 Y85.04 E12.04988
G1 X131.50 Y87.94 E12.17290
G1 X131.50 Y90.18 E12.23995
G1 X131.50 Y90.18 E12.24001
G1 X131.50 Y109.60 E12.82267
G1 X131.40 Y109.84 E12.83050
G1 X131.40 Y110.65 E12.85459
G1 X130.83 Y111.21 E12.87869
G1 X130.75 Y111.42 E12.88541
G1 X129.18 Y112.99 E12.95198
G1 X128.97 Y113.08 E12.95870
G1 X128.50 Y113.55 E12.97865
G1 X127.84 Y113.55 E12.99857
G1 X127.36 Y113.74 E13.01409
G1 X101.64 Y113.74 E13.78575
G1 X101.16 Y113.55 E13.80119
G1 X100.80 Y113.55 E13.81205
G1 X100.54 Y113.29 E13.82299
G1 X99.81 Y112.98 E13.84671
G1 X98.25 Y111.41 E13.91322
G1 X97.95 Y110.70 E13.93629
G1 X97.90 Y110.65 E13.93862
G1 X97.90 Y110.57 E13.94096
G1 X97.50 Y109.60 E13.97244
G1 X97.50 Y87.94 E14.62209
G0 F9000 X97.80 Y88.07
G1 F1500 X100.52 Y85.34 E14.73762
G1 X105.08 Y85.34 E14.87418
G1 X106.08 Y86.34 E14.91660
G1 X121.72 Y86.34 E15.38604
G1 X122.72 Y85.34 E15.42847
G1 X128.47 Y85.34 E15.60103
G1 X131.20 Y88.07 E15.71658
G1 X131.20 Y90.24 E15.78171
G1 X131.20 Y90.24 E15.78177
G1 X131.20 Y109.54 E16.36083
G1 X131.10 Y109.78 E16.36866
G1 X131.10 Y110.52 E16.39083
G1 X130.58 Y111.04 E16.41298
G1 X130.49 Y111.25 E16.41970
G1 X129.01 Y112.74 E16.48271
G1 X128.80 Y112.82 E16.48943
G1 X128.38 Y113.25 E16.50742
G1 X127.78 Y113.25 E16.52542
G1 X127.30 Y113.44 E16.54094
G1 X101.70 Y113.44 E17.30900
G1 X101.22 Y113.25 E17.32447
G1 X100.92 Y113.25 E17.33338
G1 X100.71 Y113.03 E17.34235
G1 X99.98 Y112.73 E17.36606
G1 X98.50 Y111.24 E17.42900
G1 X98.21 Y110.53 E17.45211
G1 X98.20 Y110.52 E17.45249
G1 X98.20 Y110.51 E17.45288
G1 X97.80 Y109.54 E17.48436
G1 X97.80 Y88.07 E18.12852
G0 F9000 X98.10 Y88.19
G1 F1500 X100.65 Y85.64 E18.23662
G1 X104.95 Y85.64 E18.36568
G1 X105.95 Y86.64 E18.40811
G1 X121.85 Y86.64 E18.88505
G1 X122.85 Y85.64 E18.92748
G1 X128.35 Y85.64 E19.09254
G1 X130.90 Y88.19 E19.20066
G1 X130.90 Y90.30 E19.26384
G1 X130.90 Y90.30 E19.26391
G1 X130.90 Y109.48 E19.83940
G1 X130.80 Y109.72 E19.84722
G1 X130.80 Y110.40 E19.86741
G1 X130.32 Y110.87 E19.88765
G1 X130.24 Y111.08 E19.89440
G1 X128.84 Y112.48 E19.95376
G1 X128.63 Y112.57 E19.96051
G1 X128.25 Y112.95 E19.97659
G1 X127.72 Y112.95 E19.99261
G1 X127.24 Y113.14 E20.00813
G1 X101.76 Y113.14 E20.77262
G1 X101.28 Y112.95 E20.78806
G1 X101.05 Y112.95 E20.79505
G1 X100.88 Y112.78 E20.80209
G1 X100.15 Y112.48 E20.82582
G1 X98.76 Y111.07 E20.88517
G1 X98.10 Y109.48 E20.93687
G1 X98.10 Y88.19 E21.57551
G0 F9000 X98.40 Y88.32
G1 F1500 X100.77 Y85.94 E21.67614
G1 X104.83 Y85.94 E21.79776
G1 X105.83 Y86.94 E21.84019
G1 X121.97 Y86.94 E22.32457
G1 X122.97 Y85.94 E22.36699
G1 X128.23 Y85.94 E22.52461
G1 X130.60 Y88.32 E22.62527
G1 X130.60 Y90.36 E22.68653
G1 X130.60 Y90.36 E22.68660
G1 X130.60 Y109.42 E23.25849
G1 X130.50 Y109.66 E23.26632
G1 X130.50 Y110.27 E23.28459
G1 X130.07 Y110.70 E23.30287
G1 X129.98 Y110.91 E23.30962
G1 X128.67 Y112.23 E23.36541
G1 X128.46 Y112.31 E23.37217
G1 X128.13 Y112.65 E23.38629
G1 X127.66 Y112.65 E23.40039
G1 X127.18 Y112.84 E23.41592
G1 X101.82 Y112.84 E24.17681
G1 X101.34 Y112.65 E24.19227
G1 X101.17 Y112.65 E24.19731
G1 X101.05 Y112.53 E24.20240
G1 X100.32 Y112.22 E24.22609
G1 X99.01 Y110.90 E24.28188
G1 X98.40 Y109.42 E24.33004
G1 X98.40 Y88.32 E24.96316
G0 F9000 X98.70 Y88.44
G1 F1500 X100.90 Y86.24 E25.05632
G1 X104.70 Y86.24 E25.17050
G1 X105.70 Y87.24 E25.21293
G1 X122.10 Y87.24 E25.70475
G1 X123.10 Y86.24 E25.74718
G1 X128.10 Y86.24 E25.89736
G1 X130.30 Y88.44 E25.99055
G1 X130.30 Y90.42 E26.04989
G1 X130.30 Y90.42 E26.04995
G1 X130.30 Y109.36 E26.61824
G1 X130.20 Y109.61 E26.62610
G1 X130.20 Y110.15 E26.64242
G1 X129.82 Y110.53 E26.65875
G1 X129.73 Y110.74 E26.66551
G1 X128.50 Y111.97 E26.71773
G1 X128.29 Y112.06 E26.72448
G1 X128.00 Y112.35 E26.73666
G1 X127.60 Y112.35 E26.74884
G1 X127.12 Y112.54 E26.76436
G1 X101.88 Y112.54 E27.52165
G1 X101.40 Y112.35 E27.53709
G1 X101.30 Y112.35 E27.54024
G1 X101.22 Y112.27 E27.54342
G1 X100.49 Y111.97 E27.56708
G1 X99.27 Y110.74 E27.61924
G1 X98.70 Y109.36 E27.66383
G1 X98.70 Y88.44 E28.29146
G0 F9000 X99.00 Y88.56
G1 F1500 X101.02 Y86.54 E28.37717
G1 X104.58 Y86.54 E28.48391
G1 X105.58 Y87.54 E28.52633
G1 X122.22 Y87.54 E29.02559
G1 X123.22 Y86.54 E29.06802
G1 X127.98 Y86.54 E29.21076
G1 X130.00 Y88.56 E29.29648
G1 X130.00 Y90.48 E29.35390
G1 X130.00 Y90.48 E29.35397
G1 X130.00 Y109.30 E29.91869
G1 X129.90 Y109.55 E29.92654
G1 X129.90 Y110.03 E29.94091
G1 X129.56 Y110.36 E29.95530
G1 X129.47 Y110.57 E29.96205
G1 X128.33 Y111.72 E30.01071
G1 X128.12 Y111.81 E30.01746
G1 X127.88 Y112.05 E30.02769
G1 X127.54 Y112.05 E30.03792
G1 X127.06 Y112.24 E30.05344
G1 X101.94 Y112.24 E30.80716
G1 X101.46 Y112.05 E30.82263
G1 X101.42 Y112.05 E30.82383
G1 X101.39 Y112.02 E30.82501
G1 X100.66 Y111.72 E30.84867
G1 X99.52 Y110.57 E30.89729
G1 X99.00 Y109.30 E30.93833
G1 X99.00 Y88.56 E31.56044
G0 F9000 X99.30 Y88.69
G1 F1500 X101.15 Y86.84 E31.63872
G1 X104.45 Y86.84 E31.73796
G1 X105.45 Y87.84 E31.78041
G1 X122.35 Y87.84 E32.28714
G1 X123.35 Y86.84 E32.32956
G1 X127.85 Y86.84 E32.46480
G1 X129.70 Y88.69 E32.54310
G1 X129.70 Y90.54 E32.59857
G1 X129.70 Y90.54 E32.59864
G1 X129.70 Y109.24 E33.15976
G1 X129.60 Y109.49 E33.16759
G1 X129.60 Y109.90 E33.18004
G1 X129.31 Y110.19 E33.19251
G1 X129.22 Y110.40 E33.19924
G1 X128.16 Y111.46 E33.24433
G1 X127.95 Y111.55 E33.25106
G1 X127.75 Y111.75 E33.25938
G1 X127.48 Y111.75 E33.26769
G1 X127.00 Y111.94 E33.28318
G1 X102.00 Y111.94 E34.03330
G1 X100.83 Y111.46 E34.07106
G1 X99.78 Y110.40 E34.11610
G1 X99.30 Y109.24 E34.15354
G1 X99.30 Y88.69 E34.77013
G0 F9000 X99.60 Y88.81
G1 F1500 X101.27 Y87.14 E34.84094
G1 X104.33 Y87.14 E34.93274
G1 X105.33 Y88.14 E34.97518
G1 X122.47 Y88.14 E35.48935
G1 X123.47 Y87.14 E35.53178
G1 X127.73 Y87.14 E35.65958
G1 X129.40 Y88.81 E35.73041
G1 X129.40 Y90.60 E35.78393
G1 X129.40 Y90.60 E35.78400
G1 X129.40 Y109.18 E36.34155
G1 X129.30 Y109.43 E36.34938
G1 X129.30 Y109.78 E36.35991
G1 X129.05 Y110.03 E36.37047
G1 X128.97 Y110.23 E36.37719
G1 X127.99 Y111.21 E36.41864
G1 X127.78 Y111.30 E36.42537
G1 X127.63 Y111.45 E36.43178
G1 X127.42 Y111.45 E36.43817
G1 X126.94 Y111.64 E36.45366
G1 X102.06 Y111.64 E37.20021
G1 X101.01 Y111.21 E37.23433
G1 X100.03 Y110.23 E37.27580
G1 X99.60 Y109.18 E37.30970
G1 X99.60 Y88.81 E37.92077
G0 F9000 X99.90 Y88.94
G1 F1500 X101.39 Y87.44 E37.98411
G1 X104.21 Y87.44 E38.06847
G1 X105.21 Y88.44 E38.11092
G1 X122.59 Y88.44 E38.63253
G1 X123.59 Y87.44 E38.67496
G1 X127.61 Y87.44 E38.79532
G1 X129.10 Y88.94 E38.85868
G1 X129.10 Y90.66 E38.91028
G1 X129.10 Y90.66 E38.91035
G1 X129.10 Y109.13 E39.46433
G1 X129.00 Y109.37 E39.47216
G1 X129.00 Y109.65 E39.48074
G1 X128.80 Y109.86 E39.48935
G1 X128.71 Y110.06 E39.49607
G1 X127.82 Y110.96 E39.53396
G1 X127.61 Y111.04 E39.54068
G1 X127.51 Y111.15 E39.54514
G1 X127.36 Y111.15 E39.54958
G1 X126.88 Y111.34 E39.56507
G1 X102.11 Y111.34 E40.30805
G1 X101.18 Y110.95 E40.33860
G1 X100.29 Y110.06 E40.37648
G1 X99.90 Y109.12 E40.40679
G1 X99.90 Y88.94 E41.01237
G0 F9000 X100.20 Y89.06
G1 F1500 X101.52 Y87.74 E41.06829
G1 X104.08 Y87.74 E41.14515
G1 X105.08 Y88.74 E41.18760
G1 X122.72 Y88.74 E41.71671
G1 X123.72 Y87.74 E41.75913
G1 X127.48 Y87.74 E41.87199
G1 X128.80 Y89.06 E41.92793
G1 X128.80 Y90.72 E41.97758
G1 X128.80 Y90.72 E41.97765
G1 X128.80 Y109.07 E42.52803
G1 X128.70 Y109.31 E42.53586
G1 X128.70 Y109.53 E42.54249
G1 X128.54 Y109.68 E42.54915
G1 X128.46 Y109.89 E42.55590
G1 X127.65 Y110.70 E42.59022
G1 X127.44 Y110.79 E42.59697
G1 X127.38 Y110.85 E42.59948
G1 X127.30 Y110.85 E42.60197
G1 X126.82 Y111.04 E42.61746
G1 X102.18 Y111.04 E43.35684
G1 X101.35 Y110.70 E43.38382
G1 X100.54 Y109.89 E43.41812
G1 X100.20 Y109.06 E43.44485
G1 X100.20 Y89.06 E44.04488
G0 F9000 X100.50 Y89.19
G1 F1500 X101.64 Y88.04 E44.09333
G1 X103.96 Y88.04 E44.16275
G1 X104.96 Y89.04 E44.20520
G1 X122.84 Y89.04 E44.74175
G1 X123.84 Y88.04 E44.78418
G1 X127.36 Y88.04 E44.88960
G1 X128.50 Y89.19 E44.93807
G1 X128.50 Y90.78 E44.98580
G1 X128.50 Y90.78 E44.98586
G1 X128.50 Y109.01 E45.53264
G1 X128.40 Y109.25 E45.54047
G1 X128.40 Y109.40 E45.54518
G1 X128.29 Y109.51 E45.54989
G1 X128.20 Y109.72 E45.55664
G1 X127.48 Y110.45 E45.58740
G1 X127.27 Y110.53 E45.59416
G1 X127.26 Y110.55 E45.59471
G1 X127.24 Y110.55 E45.59525
G1 X126.76 Y110.74 E45.61077
G1 X102.24 Y110.74 E46.34655
G1 X101.52 Y110.44 E46.36991
G1 X100.79 Y109.72 E46.40065
G1 X100.50 Y109.00 E46.42381
G1 X100.50 Y89.19 E47.01835
G0 F9000 X100.80 Y89.31
G1 F1500 X101.77 Y88.34 E47.05934
G1 X103.83 Y88.34 E47.12132
G1 X104.80 Y89.31 E47.16232
G1 X104.80 Y89.34 E47.16334
G1 X123.00 Y89.34 E47.70937
G1 X123.00 Y89.31 E47.71039
G1 X123.97 Y88.34 E47.75138
G1 X127.23 Y88.34 E47.84936
G1 X128.20 Y89.31 E47.89036
G1 X128.20 Y90.84 E47.93617
G1 X128.20 Y90.84 E47.93624
G1 X128.20 Y108.95 E48.47945
G1 X128.10 Y109.19 E48.48728
G1 X128.10 Y109.28 E48.49004
G1 X128.04 Y109.34 E48.49279
G1 X127.95 Y109.55 E48.49955
G1 X127.31 Y110.19 E48.52674
G1 X126.70 Y110.44 E48.54642
G1 X102.30 Y110.44 E49.27863
G1 X101.69 Y110.19 E49.29840
G1 X101.05 Y109.55 E49.32553
G1 X100.80 Y108.94 E49.34516
G1 X100.80 Y89.31 E49.93418
G0 F9000 X101.10 Y89.43
G1 F1500 X101.89 Y88.64 E49.96769
G1 X103.71 Y88.64 E50.02223
G1 X104.50 Y89.43 E50.05577
G1 X104.50 Y89.64 E50.06207
G1 X123.30 Y89.64 E50.62610
G1 X123.30 Y89.43 E50.63240
G1 X124.09 Y88.64 E50.66592
G1 X127.11 Y88.64 E50.75646
G1 X127.90 Y89.43 E50.78999
G1 X127.90 Y90.90 E50.83388
G1 X127.90 Y90.90 E50.83395
G1 X127.90 Y108.89 E51.37356
G1 X127.80 Y109.13 E51.38139
G1 X127.80 Y109.16 E51.38223
G1 X127.78 Y109.18 E51.38308
G1 X127.69 Y109.38 E51.38983
G1 X127.14 Y109.94 E51.41338
G1 X126.64 Y110.14 E51.42952
G1 X102.36 Y110.14 E52.15813
G1 X101.86 Y109.94 E52.17428
G1 X101.30 Y109.38 E52.19785
G1 X101.10 Y108.89 E52.21391
G1 X101.10 Y89.43 E52.79744
G0 F9000 X101.40 Y89.56
G1 F1500 X102.02 Y88.94 E52.82353
G1 X103.58 Y88.94 E52.87057
G1 X104.20 Y89.56 E52.89668
G1 X104.20 Y89.94 E52.90823
G1 X123.60 Y89.94 E53.49026
G1 X123.60 Y89.56 E53.50181
G1 X124.22 Y88.94 E53.52791
G1 X126.98 Y88.94 E53.61095
G1 X127.60 Y89.56 E53.63706
G1 X127.60 Y90.96 E53.67900
G1 X127.60 Y90.96 E53.67907
G1 X127.60 Y108.83 E54.21508
G1 X127.44 Y109.21 E54.22762
G1 X126.97 Y109.68 E54.24761
G1 X126.58 Y109.84 E54.26015
G1 X102.42 Y109.84 E54.98516
G1 X102.03 Y109.68 E54.99778
G1 X101.56 Y109.21 E55.01774
G1 X101.40 Y108.83 E55.03020
G1 X101.40 Y89.56 E55.60821
G0 F9000 X101.70 Y89.68
G1 F1500 X102.14 Y89.24 E55.62683
G1 X103.46 Y89.24 E55.66643
G1 X103.90 Y89.68 E55.68508
G1 X103.90 Y90.24 E55.70191
G1 X123.90 Y90.24 E56.30194
G1 X123.90 Y89.68 E56.31877
G1 X124.34 Y89.24 E56.33739
G1 X126.86 Y89.24 E56.41299
G1 X127.30 Y89.68 E56.43164
G1 X127.30 Y90.90 E56.46827
G1 X127.27 Y90.94 E56.46967
G1 X127.30 Y91.02 E56.47233
G1 X127.30 Y108.77 E57.00477
G1 X127.19 Y109.04 E57.01371
G1 X126.80 Y109.43 E57.03013
G1 X126.52 Y109.54 E57.03908
G1 X102.47 Y109.54 E57.76052
G1 X102.20 Y109.43 E57.76951
G1 X101.81 Y109.04 E57.78591
G1 X101.70 Y108.77 E57.79483
G1 X101.70 Y91.02 E58.32724
G1 X101.73 Y90.94 E58.32988
G1 X101.70 Y90.90 E58.33132
G1 X101.70 Y89.68 E58.36795
G0 F9000 X102.00 Y89.81
G1 F1500 X102.26 Y89.54 E58.37911
G1 X103.33 Y89.54 E58.41127
G1 X103.60 Y89.81 E58.42245
G1 X103.60 Y90.54 E58.44456
G1 X124.20 Y90.54 E59.06259
G1 X124.20 Y89.81 E59.08470
G1 X124.46 Y89.54 E59.09585
G1 X125.54 Y89.54 E59.12801
G1 X125.60 Y89.61 E59.13073
G1 X125.66 Y89.54 E59.13345
G1 X126.74 Y89.54 E59.16561
G1 X127.00 Y89.81 E59.17678
G1 X127.00 Y90.78 E59.20597
G1 X126.90 Y90.88 E59.21026
G1 X126.93 Y90.91 E59.21162
G1 X127.00 Y91.08 E59.21702
G1 X127.00 Y108.71 E59.74586
G1 X126.93 Y108.87 E59.75123
G1 X126.63 Y109.18 E59.76408
G1 X126.46 Y109.24 E59.76945
G1 X102.54 Y109.24 E60.48729
G1 X102.37 Y109.17 E60.49269
G1 X102.07 Y108.87 E60.50551
G1 X102.00 Y108.71 E60.51083
G1 X102.00 Y91.08 E61.03967
G1 X102.07 Y90.91 E61.04503
G1 X102.10 Y90.88 E61.04643
G1 X102.00 Y90.78 E61.05071
G1 X102.00 Y89.81 E61.07990
G0 F9000 X102.30 Y89.93
G1 F1500 X102.39 Y89.84 E61.08359
G1 X103.21 Y89.84 E61.10831
G1 X103.30 Y89.93 E61.11202
G1 X103.30 Y90.66 E61.13377
G1 X103.21 Y90.74 E61.13751
G1 X102.39 Y90.74 E61.16223
G1 X102.30 Y90.66 E61.16594
G1 X102.30 Y89.93 E61.18769
G0 F9000 X102.60 Y90.84
G1 F1500 X126.40 Y90.84 E61.90193
G1 X126.46 Y90.87 E61.90372
G1 X126.68 Y91.08 E61.91297
G1 X126.70 Y91.14 E61.91476
G1 X126.70 Y108.65 E62.44000
G1 X126.68 Y108.70 E62.44178
G1 X126.46 Y108.92 E62.45108
G1 X126.40 Y108.94 E62.45286
G1 X102.60 Y108.94 E63.16710
G1 X102.54 Y108.92 E63.16889
G1 X102.32 Y108.70 E63.17814
G1 X102.30 Y108.65 E63.17993
